X: 160
T: No_83_Song_Concerning_Gwi'wizäns.krn
%%abc-version 2.0
%%abcx-abcm2ps-target-version 5.9.1 (29 Sep 2008)
%%abc-creator hum2abc beta
%%abcx-conversion-date 2020/08/10 18:54:57
%%gracespace 0 6 6
%%humdrum-veritas 349811491
%%humdrum-veritas-data 3870250774
%%linebreak <none>
%%barnumbers 0
L: 1/8
M: 3/4
%%staves {1 2}
V: 1 clef=bass
V: 2 clef=bass
K: Bb
[V:1] B,3/B,/ [I:setbarnb 1]| 
[V:2] z2 | 
[V:1] D2D2B,D ||  
[V:2] (3!accent!G,, z G,, (3!accent!G,, z G,, (3!accent!G,, z G,, ||  
[V:1] [M:2/4]D2(3DB,A, | 
[V:2] [M:2/4]z4 | 
[V:1] G,>G,G,2 | 
[V:2] z4 | 
[V:1] G,2G,G, ||  
[V:2] z4 ||  
[V:1] [M:3/4]G,4B,B, | 
[V:2] [M:3/4]z6 | 
[V:1] D2D2B,D ||  
[V:2] z6 ||  
[V:1] [M:2/4]D2(3DB,A, | 
[V:2] [M:2/4]z4 | 
[V:1] G,>G,G,2 | 
[V:2] z4 | 
[V:1] G,2G,G, | 
[V:2] z4 | 
[V:1] G,2B,B, | 
[V:2] z4 | 
[V:1] B,2B,A, | 
[V:2] z4 | 
[V:1] G,/G,G,/G,2 | 
[V:2] z4 | 
[V:1] E,<G, G,G, | 
[V:2] z4 | 
[V:1] (3G,E,G, (3G,E,E, ||  
[V:2] z4 ||  
[V:1] [M:3/4]D,2D,2D,D, | 
[V:2] [M:3/4]z6 | 
[V:1] D,4E,/G,/G,3//G,// ||  
[V:2] z6 ||  
[V:1] [M:2/4]G,2E,D, | 
[V:2] [M:2/4]z4 | 
[V:1] D,2D,/B,,3/ | 
[V:2] z4 | 
[V:1] G,,B,, B,,A,, | 
[V:2] z4 | 
[V:1] G,,4 |]  
[V:2] z4 |]  


